docs/src/img/svelte-headless-table.svg

<svg xmlns="http://www.w3.org/2000/svg" viewBox="0 0 118 118"><path d="M101.774 15.6c-10.9-15.7-32.6-20.3-48.2-10.4l-27.5 17.6c-7.5 4.7-12.7 12.4-14.2 21.1-1.3 7.3-.2 14.8 3.3 21.3-2.4 3.6-4 7.6-4.7 11.8-1.6 8.9.5 18.1 5.7 25.4 11 15.7 32.6 20.3 48.2 10.4l27.5-17.5c7.5-4.7 12.7-12.4 14.2-21.1 1.3-7.3.2-14.8-3.3-21.3 2.4-3.6 4-7.6 4.7-11.8 1.7-9-.4-18.2-5.7-25.5" style="fill:#1f1a38"/><path d="M50.874 103.9c-8.9 2.3-18.2-1.2-23.4-8.7-3.2-4.4-4.4-9.9-3.5-15.3.2-.9.382-1.738.6-2.6 1.291-5.095 9.4-7.7 4.2-15.2-3.1-4.4-4.4-9.9-3.4-15.3.9-5.2 4.1-9.9 8.6-12.7l27.5-17.5c1.7-1.1 3.6-1.9 5.6-2.5 8.9-2.3 18.2 1.2 23.4 8.7 3.2 4.4 4.4 9.9 3.5 15.3-.2.9-.464 1.734-.7 2.6-1.383 5.071-9.4 7.7-4.2 15.2 3.2 4.4 4.4 9.9 3.5 15.3-.9 5.2-4.1 9.9-8.6 12.7l-27.5 17.5c-1.7 1.1-3.6 1.9-5.6 2.5" style="fill:#fff"/><path d="m53.689 39.805 32.855-21.336A22 22 0 0 1 90.5 22.8a19.7 19.7 0 0 1 2.826 5.58L60.228 49.874l7.612 11.721 20.254-13.153C87.066 50.425 86.9 52.727 89.1 55.9a19.6 19.6 0 0 1 2.479 4.587L74.375 71.659l8.44 12.995-10.125 6.444-8.379-12.903-32.854 21.336A22 22 0 0 1 27.5 95.2a19.7 19.7 0 0 1-2.824-5.574l33.099-21.495-7.612-11.721-20.467 13.292c1.111-2.015 1.36-4.347-.896-7.602a20.6 20.6 0 0 1-2.421-4.56l17.245-11.199-8.439-12.995 10.125-6.444z" style="fill:#2ec4b6"/></svg>

<?xml version="1.0" encoding="utf-8"?>
<svg version="1.1" x="0px" y="0px" viewBox="0 0 118 118" style="enable-background:new 0 0 98.1 118;" xmlns="http://www.w3.org/2000/svg">
  <path
    d="M 101.774 15.6 C 90.874 -0.1 69.174 -4.7 53.574 5.2 L 26.074 22.8 C 18.574 27.5 13.374 35.2 11.874 43.9 C 10.574 51.2 11.674 58.7 15.174 65.2 C 12.774 68.8 11.174 72.8 10.474 77 C 8.874 85.9 10.974 95.1 16.174 102.4 C 27.174 118.1 48.774 122.7 64.374 112.8 L 91.874 95.3 C 99.374 90.6 104.574 82.9 106.074 74.2 C 107.374 66.9 106.274 59.4 102.774 52.9 C 105.174 49.3 106.774 45.3 107.474 41.1 C 109.174 32.1 107.074 22.9 101.774 15.6"
    style="fill: rgb(31, 26, 56);"
  />
  <path
    d="M 50.874 103.9 C 41.974 106.2 32.674 102.7 27.474 95.2 C 24.274 90.8 23.074 85.3 23.974 79.9 C 24.174 79 24.356 78.162 24.574 77.3 C 25.865 72.205 33.974 69.6 28.774 62.1 C 25.674 57.7 24.374 52.2 25.374 46.8 C 26.274 41.6 29.474 36.9 33.974 34.1 L 61.474 16.6 C 63.174 15.5 65.074 14.7 67.074 14.1 C 75.974 11.8 85.274 15.3 90.474 22.8 C 93.674 27.2 94.874 32.7 93.974 38.1 C 93.774 39 93.51 39.834 93.274 40.7 C 91.891 45.771 83.874 48.4 89.074 55.9 C 92.274 60.3 93.474 65.8 92.574 71.2 C 91.674 76.4 88.474 81.1 83.974 83.9 L 56.474 101.4 C 54.774 102.5 52.874 103.3 50.874 103.9"
    style="fill: white;"
  />
  <path
    d="M 53.689 39.805 L 86.544 18.469 C 88.027 19.709 89.362 21.158 90.5 22.8 C 91.748 24.516 92.692 26.4 93.326 28.38 L 60.228 49.874 L 67.84 61.595 L 88.094 48.442 C 87.066 50.425 86.9 52.727 89.1 55.9 C 90.138 57.327 90.965 58.87 91.579 60.487 L 74.375 71.659 L 82.815 84.654 L 72.69 91.098 L 64.311 78.195 L 31.457 99.531 C 29.973 98.291 28.638 96.842 27.5 95.2 C 26.253 93.485 25.31 91.604 24.676 89.626 L 57.775 68.131 L 50.163 56.41 L 29.696 69.702 C 30.807 67.687 31.056 65.355 28.8 62.1 C 27.8 60.681 26.988 59.148 26.379 57.54 L 43.624 46.341 L 35.185 33.346 L 45.31 26.902 L 53.689 39.805 Z"
    style="fill: rgb(46, 196, 182);"
  />
</svg>
